etc/img/icons/codicons-set/terminal-debian.svg

<svg width="16" height="16" viewBox="0 0 16 16" xmlns="http://www.w3.org/2000/svg" fill="white"><path d="M7.08419 0.0288751C6.95806 0.0354582 6.83048 0.0421171 6.72915 0.0792291L6.62189 0.0646226C6.79198 0.0426785 6.96358 0.0300145 7.13605 0.0172873C7.21056 0.0117879 7.28524 0.00627676 7.36003 0C7.27735 0.0187938 7.1812 0.023812 7.08419 0.0288751Z"/><path d="M11.2106 7.67506C11.3049 7.43712 11.3835 7.23879 11.3715 6.91311L11.2376 7.19521C11.3733 6.78414 11.3614 6.34794 11.35 5.93276C11.3449 5.74607 11.3399 5.5636 11.3485 5.38961L11.2938 5.37486C11.2457 3.96363 10.0258 2.46374 8.94006 1.95635C8.00436 1.52406 6.56378 1.44999 5.89822 1.77561C5.93779 1.74057 6.02835 1.7143 6.10963 1.69073C6.21654 1.65972 6.30739 1.63337 6.24494 1.59783C5.64448 1.65751 5.46726 1.76907 5.27208 1.89194C5.12853 1.98231 4.97526 2.07879 4.63675 2.16527C4.52681 2.27143 4.68825 2.22833 4.81801 2.19368C4.94685 2.15929 5.04447 2.13322 4.81424 2.26987C4.70141 2.30099 4.60445 2.31055 4.51123 2.31973C4.25047 2.34542 4.01898 2.36823 3.5513 2.85221C3.57662 2.89321 3.66018 2.84317 3.71867 2.80814C3.79069 2.76501 3.8247 2.74464 3.6652 2.94502C3.06855 2.87095 1.78023 4.31006 1.50669 4.7872L1.6498 4.81184C1.55005 5.06173 1.43696 5.27316 1.33664 5.46073C1.20074 5.71482 1.08826 5.92512 1.06407 6.1279C1.05113 6.31289 1.02716 6.53038 1.00154 6.76281C0.907137 7.61944 0.790383 8.67887 1.12102 9.06115L1.0803 9.46688C1.09868 9.50356 1.11563 9.54046 1.13251 9.57722C1.16859 9.65579 1.20436 9.73368 1.25321 9.80726L1.15967 9.81478C1.37914 10.507 1.49775 10.5185 1.63294 10.5316C1.77012 10.5448 1.92438 10.5597 2.21842 11.2893C2.13373 11.2608 2.04816 11.2297 1.92482 11.0631C1.91006 11.1902 2.10437 11.5714 2.33557 11.8688L2.23775 11.9807C2.3364 12.1599 2.42914 12.2318 2.50728 12.2923C2.53105 12.3108 2.55347 12.3281 2.57429 12.3472C2.20186 12.1439 2.67468 12.7752 2.945 13.1361C3.02337 13.2407 3.08471 13.3226 3.10352 13.3549L3.17729 13.2234C3.16666 13.4124 3.31288 13.6564 3.5873 13.995L3.81569 13.986C3.90982 14.1721 4.25403 14.5082 4.4628 14.524L4.32397 14.7053C4.57772 14.7857 4.64541 14.8398 4.72085 14.9002C4.80122 14.9645 4.89038 15.0358 5.22264 15.1534L5.09265 14.9237C5.20148 15.0181 5.28541 15.1086 5.36586 15.1954C5.5282 15.3706 5.67639 15.5304 5.98645 15.6764C6.3376 15.7988 6.52238 15.8279 6.72534 15.8599C6.89393 15.8864 7.07507 15.9149 7.37451 16.0006C7.30358 15.9985 7.23106 15.9968 7.1576 15.9951C6.65185 15.9832 6.10152 15.9703 5.71542 15.8322C2.69866 15.0151 -0.0612225 11.4762 0.140612 7.8314C0.121043 7.52064 0.130982 7.17724 0.139872 6.87006C0.152095 6.44775 0.162336 6.09393 0.0911865 5.98759L0.123083 5.88348C0.288761 5.34205 0.487792 4.69162 0.865183 3.92645L0.861332 3.91943C0.860404 3.91777 0.859984 3.91703 0.860069 3.91696L0.861308 3.91809C0.873047 3.9299 0.96729 4.02473 1.13562 3.7379C1.17646 3.64821 1.21481 3.55553 1.25347 3.4621C1.33214 3.27196 1.4121 3.07872 1.51687 2.90134L1.59713 2.88261C1.65145 2.56723 2.12962 2.13811 2.52673 1.78174C2.71742 1.61061 2.88941 1.45626 2.98681 1.33934L3.00747 1.47699C3.54081 0.976913 4.41366 0.611055 5.0745 0.334059C5.2255 0.27077 5.36549 0.21209 5.48777 0.157538C5.38069 0.276058 5.5552 0.240215 5.79936 0.190065C5.94881 0.159369 6.12436 0.123313 6.2774 0.114014C6.23638 0.136954 6.19547 0.158251 6.15488 0.179387C6.06964 0.223771 5.98577 0.267441 5.90501 0.324111C6.16436 0.26224 6.27797 0.280303 6.40379 0.300306C6.5126 0.317604 6.63053 0.336353 6.85974 0.306111C6.68638 0.33134 6.47569 0.400094 6.50933 0.426356C6.75495 0.45482 6.90806 0.424219 7.04727 0.396394C7.22124 0.361624 7.37352 0.331189 7.65749 0.425766L7.62518 0.274833C7.86027 0.359724 8.03383 0.411741 8.18883 0.458197C8.50203 0.552066 8.73947 0.623227 9.25565 0.89701C9.35502 0.901821 9.42158 0.880701 9.48618 0.860202C9.59788 0.824761 9.70371 0.79118 9.9631 0.896715C9.97748 0.921962 9.98546 0.943097 9.99303 0.963138C10.0234 1.04347 10.0471 1.10621 10.4492 1.34568C10.5047 1.32363 10.3525 1.18429 10.2295 1.07173L10.2256 1.06816C11.2361 1.60845 12.3345 2.75985 12.6694 3.99211C12.4812 3.64512 12.5073 3.82092 12.535 4.00711C12.5534 4.1311 12.5725 4.25971 12.5294 4.2416C12.6691 4.61856 12.7836 5.00822 12.8544 5.41041L12.8306 5.32468C12.729 4.9575 12.5316 4.24385 12.2047 3.77021C12.1928 3.90686 12.1131 3.89206 12.0399 3.87846C11.9354 3.85906 11.844 3.84209 11.9816 4.27125C12.0632 4.3895 12.0777 4.3447 12.0905 4.30526C12.1057 4.25848 12.1185 4.21924 12.2377 4.46852C12.2398 4.60186 12.2717 4.73471 12.3072 4.88275C12.3299 4.97714 12.354 5.0777 12.3729 5.18851C12.3393 5.18298 12.3023 5.11969 12.2666 5.05881C12.2224 4.98331 12.1804 4.9115 12.1498 4.95805C12.2261 5.31599 12.3515 5.50263 12.3993 5.53007C12.3912 5.54978 12.3789 5.55046 12.3659 5.55118C12.3394 5.55265 12.3099 5.55428 12.3071 5.71759C12.3294 6.14594 12.4094 6.10881 12.4727 6.07941C12.4922 6.07034 12.5102 6.062 12.5244 6.0683C12.5073 6.14569 12.4755 6.22692 12.4413 6.31424C12.3549 6.53513 12.2532 6.79492 12.3349 7.12979C12.3094 7.03072 12.2689 6.9313 12.2295 6.83467C12.2135 6.79542 12.1977 6.75663 12.1831 6.7185C12.1653 6.869 12.1731 6.97448 12.1803 7.0728C12.1926 7.23915 12.2034 7.38498 12.0858 7.6936C12.2206 7.25098 12.2059 6.85159 12.0788 7.04398C12.1095 7.38677 11.959 7.68619 11.8253 7.95208C11.7137 8.17418 11.6138 8.37287 11.6411 8.55391L11.48 8.332C11.2425 8.67623 11.2606 8.74896 11.2784 8.82099C11.2934 8.88131 11.3082 8.94115 11.1728 9.15956C11.2244 9.07023 11.2142 9.0482 11.2044 9.02694C11.1934 9.00339 11.183 8.98079 11.2575 8.86876C11.2064 8.87172 11.087 8.98949 10.9409 9.13369C10.8178 9.25515 10.6757 9.39539 10.5394 9.50156C9.36719 10.4412 7.96777 10.564 6.61306 10.0579L6.61225 10.0586C6.6194 10.027 6.60718 9.99185 6.51612 9.93045C5.36782 9.05038 4.68898 8.3022 4.9246 6.57052C4.99306 6.51885 5.04188 6.37701 5.09996 6.20828C5.19046 5.94533 5.30345 5.61707 5.54826 5.46294C5.79317 4.92176 6.52704 4.42322 7.31151 4.41083C8.11236 4.36671 8.78809 4.8381 9.12758 5.28279C8.50954 4.70679 7.498 4.53152 6.63519 4.95864C5.75304 5.35538 5.23001 6.32708 5.30629 7.2945C5.31683 7.27898 5.32698 7.27154 5.33643 7.26461C5.35637 7.25 5.37319 7.23767 5.3839 7.1567C5.3569 9.03695 7.41007 10.415 8.88813 9.71962L8.90568 9.75857C9.30286 9.65023 9.4028 9.55446 9.53909 9.42386C9.60845 9.35739 9.68723 9.2819 9.8194 9.19113C9.80939 9.21182 9.77762 9.24302 9.7443 9.27573C9.67591 9.34288 9.60103 9.41641 9.69458 9.41849C9.85965 9.37467 10.3284 8.95326 10.6412 8.67206C10.6896 8.62853 10.7343 8.58835 10.7735 8.55346C10.8357 8.41946 10.825 8.37591 10.8142 8.33174C10.8017 8.28044 10.7889 8.22829 10.8897 8.03265L11.1188 7.91815C11.1494 7.82963 11.1808 7.75036 11.2106 7.67506Z"/><path fill-rule="evenodd" clip-rule="evenodd" d="M6.61225 10.0586C6.60788 10.0627 6.60626 10.0682 6.60707 10.0749C6.60918 10.0695 6.61101 10.0641 6.61225 10.0586ZM6.60707 10.0749C6.61534 10.1437 6.87563 10.3427 7.0719 10.4437C7.588 10.6345 8.17152 10.642 8.63081 10.6251C7.63816 11.0403 5.74242 10.2034 5.12231 9.09316C5.17857 9.10541 5.28954 9.23331 5.42549 9.39C5.62858 9.62407 5.8874 9.92237 6.10286 9.99537C5.89026 9.82496 5.72575 9.60808 5.57334 9.385C5.8606 9.71519 6.20998 9.9849 6.59151 10.1636C6.58309 10.1316 6.59293 10.1085 6.6021 10.087L6.60707 10.0749Z"/><path d="M6.75221 0.219334C6.72713 0.215138 6.70163 0.21087 6.67682 0.206421C7.14939 0.219847 7.11428 0.251126 6.95951 0.28506C6.97849 0.257197 6.87014 0.239067 6.75221 0.219334Z"/><path d="M9.63041 6.73212C9.66242 6.25468 9.53642 6.40561 9.49408 6.58783C9.51255 6.59742 9.52957 6.64682 9.54615 6.69492C9.57394 6.77556 9.60046 6.85254 9.63041 6.73212Z"/><path d="M9.41869 7.39575C9.37811 7.64244 9.26303 7.88101 9.10516 8.09893C9.11147 8.03775 9.06672 8.02517 9.02212 8.01264C8.93011 7.98677 8.83875 7.96109 9.19767 7.50936C9.18273 7.57031 9.12591 7.66334 9.0724 7.75094C8.96 7.93497 8.86221 8.09508 9.19797 7.88367L9.23139 7.82462C9.31048 7.68557 9.38765 7.5499 9.41869 7.39575Z"/><path d="M8.07842 8.64347C7.73229 8.59021 7.417 8.45728 7.68213 8.45359C7.90314 8.4738 8.12253 8.47262 8.33809 8.4198C8.26078 8.49327 8.17402 8.56882 8.07842 8.64347Z"/><path d="M6.95951 0.28506L6.85974 0.306111L6.95253 0.297428L6.95951 0.28506Z"/><path d="M4.78828 8.81763L4.7511 9.00353C4.79837 9.06773 4.843 9.1334 4.88737 9.19869C5.00656 9.37407 5.12395 9.5468 5.28608 9.68162C5.21099 9.53504 5.14496 9.42881 5.07342 9.31374C4.99246 9.18348 4.90445 9.04189 4.78828 8.81763Z"/><path d="M5.01463 8.49944C5.06738 8.60653 5.11932 8.71194 5.20019 8.80136L5.28178 9.04185L5.24378 8.9782C5.14411 8.81187 5.04413 8.645 4.99231 8.45435L5.01463 8.49944Z"/><path d="M12.4893 7.21704L12.4504 7.31471C12.3789 7.82196 12.2248 8.32389 11.9884 8.78923C12.2495 8.29822 12.4185 7.76117 12.4893 7.21704Z"/><path d="M0.435842 3.42578C0.436667 3.43342 0.437345 3.44097 0.437883 3.44843C0.436416 3.44226 0.435691 3.43478 0.435842 3.42578Z"/><path d="M0.437883 3.44843C0.446484 3.4846 0.480582 3.47594 0.513065 3.46769C0.572562 3.45259 0.626644 3.43885 0.508726 3.70448C0.434894 3.75611 0.389974 3.79095 0.364865 3.81042C0.347118 3.82418 0.339269 3.83027 0.338106 3.82918C0.337183 3.82832 0.340464 3.82295 0.346346 3.81333C0.372785 3.77007 0.451775 3.64081 0.437883 3.44843Z"/><path d="M0.118757 4.7598C0.0975441 4.8755 0.0732526 5.008 0.0121144 5.19565C0.0194219 5.13536 0.0132188 5.08758 0.00732279 5.04216C-0.00630403 4.93718 -0.0182905 4.84485 0.14195 4.64001C0.133576 4.67896 0.126364 4.7183 0.118757 4.7598Z"/></svg>

<svg width="16" height="16" viewBox="0 0 16 16" xmlns="http://www.w3.org/2000/svg" fill="white"><path fill-rule="evenodd" clip-rule="evenodd" d="M7.084.029a1.276 1.276 0 0 0-.355.05L6.622.065a9.46 9.46 0 0 1 .514-.048c.075-.005.15-.01.224-.017a1.67 1.67 0 0 1-.276.029zm4.127 7.646c.094-.238.172-.436.16-.762l-.133.282c.135-.41.123-.847.112-1.262-.005-.187-.01-.37-.002-.543l-.054-.015c-.048-1.411-1.268-2.911-2.354-3.419-.936-.432-2.376-.506-3.042-.18a.657.657 0 0 1 .212-.085c.107-.031.197-.058.135-.093-.6.06-.778.171-.973.294a1.92 1.92 0 0 1-.635.273c-.11.106.051.063.181.029.129-.035.226-.06-.004.076a1.7 1.7 0 0 1-.303.05c-.26.025-.492.048-.96.532.026.041.11-.009.168-.044.072-.043.106-.063-.054.137C3.07 2.871 1.78 4.31 1.507 4.787l.143.025c-.1.25-.213.461-.313.649-.136.254-.249.464-.273.667a16.97 16.97 0 0 1-.062.635C.907 7.619.79 8.679 1.12 9.06l-.04.406.052.11c.036.079.071.157.12.23l-.093.008c.22.692.338.704.473.717.137.013.291.028.585.757-.084-.028-.17-.06-.293-.226-.015.127.18.508.41.806l-.097.112a.89.89 0 0 0 .27.311c.023.019.045.036.066.055-.372-.203.1.428.371.79.078.104.14.186.159.218l.073-.132c-.01.19.136.433.41.772l.229-.009c.094.186.438.522.647.538l-.139.181c.254.08.321.135.397.195.08.064.17.136.502.253l-.13-.23c.108.095.192.186.273.272.162.176.31.335.62.481.352.123.536.152.74.184.168.026.35.055.649.14a33.82 33.82 0 0 0-.217-.005c-.506-.012-1.056-.025-1.443-.163-3.016-.817-5.776-4.356-5.574-8-.02-.311-.01-.655 0-.961.012-.422.022-.776-.049-.882l.032-.105c.166-.54.365-1.191.742-1.957L.861 3.92v-.002.001c.012.012.106.107.275-.18.04-.09.079-.182.117-.276.08-.19.16-.383.264-.56l.08-.02c.054-.315.533-.744.93-1.1.19-.171.362-.326.46-.443l.02.138C3.541.977 4.414.611 5.074.334c.152-.063.291-.122.414-.176-.107.118.067.082.311.032.15-.03.325-.067.478-.076-.04.023-.082.044-.122.065-.085.045-.17.088-.25.145.26-.062.373-.044.499-.024.109.018.227.036.456.006-.174.025-.384.094-.35.12.245.029.398-.002.537-.03.174-.034.327-.065.61.03L7.625.275c.235.085.409.137.564.183.313.094.55.165 1.067.439a.58.58 0 0 0 .23-.037c.112-.035.218-.069.477.037.014.025.022.046.03.066.03.08.054.143.456.383.056-.022-.097-.162-.22-.274l-.003-.004c1.01.54 2.108 1.692 2.443 2.924-.188-.347-.162-.171-.134.015.018.124.037.253-.006.235.14.377.255.766.325 1.168l-.023-.085c-.102-.368-.3-1.081-.626-1.555-.012.137-.092.122-.165.108-.105-.019-.196-.036-.058.393.081.119.096.074.109.034.015-.047.027-.086.147.164.002.133.034.266.07.414.022.094.046.195.065.306-.034-.006-.07-.07-.106-.13-.045-.076-.087-.147-.117-.101.076.358.201.545.25.572-.009.02-.021.02-.034.021-.027.002-.056.003-.059.167.022.428.102.39.166.361.02-.009.037-.017.051-.01a1.724 1.724 0 0 1-.083.245c-.086.221-.188.48-.106.816a2.356 2.356 0 0 0-.106-.295 5.896 5.896 0 0 1-.046-.117c-.018.151-.01.256-.003.355.013.166.023.312-.094.62.135-.442.12-.841-.007-.649.03.343-.12.642-.254.908-.111.222-.211.42-.184.602l-.161-.222c-.238.344-.22.417-.202.489.015.06.03.12-.105.339.051-.09.041-.112.031-.133-.01-.024-.021-.046.053-.158-.05.003-.17.12-.316.265-.123.121-.265.261-.402.368-1.172.94-2.571 1.062-3.926.556.006-.031-.006-.066-.097-.128-1.148-.88-1.827-1.628-1.591-3.36.068-.051.117-.193.175-.362.09-.263.203-.59.448-.745.245-.541.979-1.04 1.764-1.052.8-.044 1.476.427 1.816.872-.618-.576-1.63-.751-2.493-.324-.882.396-1.405 1.368-1.329 2.336.01-.016.021-.023.03-.03.02-.015.037-.027.048-.108-.027 1.88 2.026 3.258 3.504 2.563l.018.039c.397-.109.497-.205.633-.335.07-.067.148-.142.28-.233a.441.441 0 0 1-.075.085c-.068.067-.143.14-.05.142.166-.043.634-.465.947-.746l.133-.119c.062-.134.051-.177.04-.221-.012-.052-.025-.104.076-.3l.229-.114c.03-.088.062-.168.092-.243zM6.612 10.06a.018.018 0 0 0-.005.016.114.114 0 0 0 .005-.016zm-.005.016c.008.069.269.268.465.369.516.19 1.1.198 1.559.181-.993.415-2.889-.422-3.509-1.532.057.012.168.14.303.297.204.234.462.532.678.605-.213-.17-.377-.387-.53-.61.288.33.637.6 1.019.779a.102.102 0 0 1 .01-.077l.005-.012zM6.752.219a6.612 6.612 0 0 1-.075-.013c.472.014.437.045.283.08.018-.029-.09-.047-.208-.067zM9.63 6.732c.032-.477-.094-.326-.136-.144.019.01.036.059.052.107.028.08.054.158.084.037zm-.211.664a1.68 1.68 0 0 1-.314.703c.006-.061-.038-.074-.083-.086-.092-.026-.183-.052.176-.504a1.113 1.113 0 0 1-.126.242c-.112.184-.21.344.126.133l.033-.06a1.43 1.43 0 0 0 .188-.428zm-1.34 1.247c-.347-.053-.662-.186-.397-.19.221.02.44.02.656-.033a3.544 3.544 0 0 1-.26.223zM6.958.285l-.1.02.094-.008.006-.012zM4.79 8.818l-.038.186c.047.064.092.13.136.195.12.175.237.348.4.483a4.73 4.73 0 0 0-.214-.368c-.08-.13-.169-.272-.285-.496zm.226-.319c.052.108.104.213.185.302l.082.24-.038-.063c-.1-.166-.2-.333-.252-.524l.023.045zm7.474-1.282l-.039.098a4.717 4.717 0 0 1-.462 1.474c.261-.49.43-1.028.501-1.572zM.436 3.426zm.002.022c.008.037.043.028.075.02.06-.015.114-.03-.004.236-.074.052-.119.087-.144.106l-.027.02a.05.05 0 0 1 .008-.017.597.597 0 0 0 .092-.365zM.118 4.76a2.92 2.92 0 0 1-.106.436.588.588 0 0 0-.005-.154c-.013-.105-.025-.197.135-.402a4.009 4.009 0 0 0-.023.12z"/></svg>
